X: 24222
T: Lord McDonald's
R: reel
M: 4/4
K: Gmajor
B|Td3 e d<Bg>B|dBgB aAAB|Td^cde dBgB|(A/B/c) BA BG G:|
B|DGBG TAGBG|DGBG TAGAB|DGBG TAGBG|DEDC B,G,G,G|
DGBG TAGBG|DGBG TA>GEc|BAGF GFED|TE>FGA BGG:|
B|Td3 e d<Bg>B|dBgB aAAB|Td^cde dBgB|(A/B/c) BA BG G:|
g|(dg)bg T(ag)bg|(dg)bg T(ag)eg|(dg)bg T(ag)bg|Td>edc BGGg|
(dg)bg T(ag)bg|(dg)bg T(ag)eg|(ba).g.f (gf).e.d|efga bggb||

